dist/images/svg/sprite/icon-traning.svg

<svg width="48" height="48" viewBox="0 0 48 48" fill="none" xmlns="http://www.w3.org/2000/svg">
<g clip-path="url(#clip0_22_1356)">
<path d="M41.25 23.25H38.25C38.1514 23.2503 38.0538 23.231 37.9627 23.1934C37.8716 23.1558 37.7888 23.1006 37.7191 23.0309C37.6495 22.9612 37.5942 22.8784 37.5566 22.7873C37.519 22.6962 37.4998 22.5986 37.5 22.5V22.0796C39.2758 20.9842 40.5461 19.2307 41.0337 17.202C41.7069 17.0804 42.3184 16.7323 42.7666 16.2155C43.2149 15.6987 43.4731 15.0442 43.4983 14.3605C43.5235 13.6769 43.3144 13.0051 42.9054 12.4566C42.4965 11.9082 41.9124 11.5159 41.25 11.345V8.25002C41.2483 6.93431 40.7531 5.6671 39.8624 4.69873C38.9717 3.73037 37.7502 3.13127 36.4392 3.0198C36.1233 2.55029 35.6964 2.16596 35.1964 1.90086C34.6965 1.63576 34.1388 1.49808 33.5729 1.50002H30.75C28.9604 1.50203 27.2447 2.21383 25.9792 3.47927C24.7138 4.7447 24.002 6.46043 24 8.25002V10.5C24 10.6989 24.079 10.8897 24.2197 11.0303C24.3603 11.171 24.5511 11.25 24.75 11.25H25.5V11.3446C24.8379 11.5155 24.254 11.9075 23.8452 12.4557C23.4363 13.0038 23.227 13.6752 23.2519 14.3585C23.2767 15.0419 23.5343 15.6963 23.982 16.2132C24.4296 16.7301 25.0404 17.0787 25.7132 17.201C25.7327 17.2833 25.7535 17.3653 25.7756 17.4469L27.223 17.0531C27.0746 16.5061 26.9996 15.9418 27 15.375V11.2273C29.9617 11.0857 32.8462 10.2356 35.4113 8.7483C35.6181 9.53823 36.0189 10.264 36.5773 10.8598C37.1357 11.4556 37.834 11.9026 38.6089 12.1601L39.75 12.5406V15.375C39.7499 16.5447 39.428 17.6919 38.8195 18.6909C38.2111 19.6899 37.3395 20.5022 36.3002 21.039C35.261 21.5758 34.0941 21.8163 32.9272 21.7343C31.7604 21.6522 30.6386 21.2508 29.6847 20.5738L28.8153 21.7961C29.1892 22.0618 29.5856 22.2943 30 22.4911V22.5C29.9998 22.6989 29.9207 22.8895 29.7801 23.0301C29.6395 23.1707 29.4488 23.2498 29.25 23.25H28.5V21C28.4991 20.2046 28.1827 19.4421 27.6203 18.8797C27.0579 18.3173 26.2954 18.0009 25.5 18H4.5C3.70462 18.0009 2.94208 18.3173 2.37967 18.8797C1.81725 19.4421 1.50089 20.2046 1.5 21V23.25H3V21C3.00047 20.6023 3.15866 20.2211 3.43986 19.9399C3.72106 19.6587 4.10232 19.5005 4.5 19.5H25.5C25.8977 19.5005 26.2789 19.6587 26.5601 19.9399C26.8413 20.2211 26.9995 20.6023 27 21V34.5C26.9995 34.8977 26.8413 35.279 26.5601 35.5602C26.2789 35.8414 25.8977 35.9995 25.5 36H17.2134L17.9833 32.4071C18.0067 32.2978 18.0054 32.1846 17.9795 32.0758C17.9535 31.9671 17.9035 31.8655 17.8332 31.7785C17.7629 31.6916 17.6741 31.6214 17.5731 31.5732C17.4722 31.525 17.3618 31.5 17.25 31.5H12C11.8532 31.5 11.7097 31.5431 11.5871 31.6239C11.4646 31.7047 11.3685 31.8197 11.3107 31.9546L9.57694 36H4.5C4.10232 35.9995 3.72106 35.8414 3.43986 35.5602C3.15866 35.279 3.00047 34.8977 3 34.5V24.75H1.5V34.5C1.50089 35.2954 1.81725 36.0579 2.37967 36.6204C2.94208 37.1828 3.70462 37.4991 4.5 37.5H8.93438L7.00547 42H2.25C2.05109 42 1.86032 42.079 1.71967 42.2197C1.57902 42.3603 1.5 42.5511 1.5 42.75V45.75C1.5 45.9489 1.57902 46.1397 1.71967 46.2803C1.86032 46.421 2.05109 46.5 2.25 46.5H45.75C45.9489 46.5 46.1397 46.421 46.2803 46.2803C46.421 46.1397 46.5 45.9489 46.5 45.75V42.75C46.5 42.5511 46.421 42.3603 46.2803 42.2197C46.1397 42.079 45.9489 42 45.75 42H44.4622C45.1026 41.4381 45.6156 40.7461 45.967 39.97C46.3184 39.194 46.5001 38.3519 46.5 37.5V36.75H45V37.5C44.9986 38.6931 44.5241 39.8369 43.6805 40.6805C42.8369 41.5241 41.6931 41.9987 40.5 42H28.5V40.5C28.5007 39.9035 28.738 39.3316 29.1598 38.9098C29.5816 38.488 30.1535 38.2507 30.75 38.25H40.5C40.6989 38.25 40.8897 38.171 41.0303 38.0303C41.171 37.8897 41.25 37.6989 41.25 37.5V32.25H45V35.25H46.5V28.5C46.4984 27.1081 45.9448 25.7737 44.9606 24.7895C43.9763 23.8052 42.6419 23.2516 41.25 23.25ZM41.25 15.375V12.953C41.4492 13.0678 41.6192 13.2268 41.7471 13.4179C41.8749 13.6089 41.957 13.8268 41.9871 14.0547C42.0172 14.2826 41.9944 14.5144 41.9206 14.7321C41.8467 14.9497 41.7238 15.1475 41.5612 15.3101C41.467 15.4035 41.3609 15.4843 41.2456 15.5501C41.2468 15.4917 41.25 15.4337 41.25 15.375ZM24.75 14.25C24.7496 14.0531 24.7882 13.8581 24.8635 13.6762C24.9388 13.4942 25.0493 13.329 25.1887 13.19C25.2818 13.0977 25.3864 13.0179 25.5 12.9526V15.375C25.5 15.4331 25.5016 15.4909 25.5029 15.5488C25.2744 15.4176 25.0845 15.2284 24.9523 15.0004C24.8201 14.7724 24.7503 14.5136 24.75 14.25ZM35.25 7.09315C32.5119 8.8315 29.335 9.75315 26.0917 9.75002H25.5V8.91461C31.9203 8.07377 34.1841 5.87655 34.2803 5.78036L33.2244 4.71499C33.219 4.72024 32.6735 5.23896 31.3567 5.83858C30.2491 6.34305 28.3781 6.99864 25.5713 7.39127C25.6512 6.90662 25.7993 6.43571 26.011 5.99252C28.817 5.9133 30.2715 5.20277 30.3354 5.1708L29.6687 3.82718C29.658 3.83243 28.8184 4.22955 27.174 4.41114C28.1436 3.50382 29.4221 2.99933 30.75 3.00002H33.5729C33.91 2.99881 34.2417 3.08495 34.5356 3.25004C34.8295 3.41512 35.0756 3.65353 35.25 3.94202V7.09315ZM39.0833 10.7372C38.4035 10.5113 37.8121 10.077 37.3933 9.49583C36.9744 8.9147 36.7493 8.21636 36.75 7.50002V4.57502C37.5964 4.74908 38.357 5.20963 38.9035 5.87907C39.45 6.5485 39.7489 7.38586 39.75 8.25002V10.9594L39.0833 10.7372ZM31.441 23.0099C32.955 23.3924 34.5485 23.3166 36.0193 22.792C36.0826 23.2844 36.3077 23.7419 36.6593 24.0925C36.77 24.2027 36.8917 24.3013 37.0226 24.3866L36.8089 24.6715C36.429 25.1794 35.9321 25.5882 35.3604 25.863C34.7887 26.1378 34.1591 26.2705 33.5251 26.2499C32.8911 26.2292 32.2715 26.0558 31.7188 25.7444C31.1662 25.433 30.697 24.9928 30.3509 24.4612C30.6231 24.3079 30.8606 24.0997 31.0483 23.8499C31.2359 23.6001 31.3696 23.3141 31.441 23.0099ZM27 40.5V42H23.25V40.5H27ZM25.4077 37.5H25.5C25.753 37.5002 26.005 37.4683 26.25 37.4051V39H24.8078L25.4077 37.5ZM19.4078 37.5H23.7922L23.1922 39H22.5C22.3011 39 22.1103 39.079 21.9697 39.2197C21.829 39.3603 21.75 39.5511 21.75 39.75V42H20.25V39.75C20.25 39.5511 20.171 39.3603 20.0303 39.2197C19.8897 39.079 19.6989 39 19.5 39H18.8078L19.4078 37.5ZM16.892 37.5H17.792L17.192 39H16.5703L16.892 37.5ZM18.75 40.5V42H15.9281L16.2495 40.5H18.75ZM12.4945 33H16.3219L14.3933 42H8.63709L12.4945 33ZM45 43.5V45H3V43.5H45ZM45 30.75H41.25V28.5H39.75V36.75H30.75C30.1676 36.7501 29.5932 36.8859 29.0724 37.1467C28.5516 37.4076 28.0988 37.7862 27.75 38.2526V36.4808C28.2336 35.9343 28.5003 35.2297 28.5 34.5V24.75H28.787C29.2034 25.5786 29.8245 26.287 30.5914 26.8083C31.3583 27.3296 32.2457 27.6463 33.1693 27.7286C34.093 27.8108 35.0223 27.6558 35.8693 27.2783C36.7163 26.9008 37.4528 26.3132 38.0091 25.5713L38.625 24.75H41.25C42.2442 24.7511 43.1974 25.1466 43.9004 25.8496C44.6034 26.5526 44.9989 27.5058 45 28.5V30.75ZM36.6922 28.575L37.3461 29.925C36.134 30.5121 34.7966 30.7934 33.4507 30.7446C32.1048 30.6957 30.7913 30.3181 29.625 29.6447L30.375 28.3457C31.3293 28.8967 32.4039 29.2056 33.5051 29.2456C34.6063 29.2856 35.7005 29.0553 36.6922 28.575H36.6922ZM31.5 13.5C31.5 13.7967 31.412 14.0867 31.2472 14.3334C31.0824 14.58 30.8481 14.7723 30.574 14.8858C30.2999 14.9994 29.9983 15.0291 29.7074 14.9712C29.4164 14.9133 29.1491 14.7705 28.9393 14.5607C28.7296 14.3509 28.5867 14.0836 28.5288 13.7927C28.4709 13.5017 28.5006 13.2001 28.6142 12.926C28.7277 12.6519 28.92 12.4176 29.1666 12.2528C29.4133 12.088 29.7033 12 30 12C30.3977 12.0005 30.7789 12.1587 31.0601 12.4399C31.3413 12.7211 31.4995 13.1023 31.5 13.5ZM34.5 13.5C34.5 13.2033 34.588 12.9133 34.7528 12.6667C34.9176 12.42 35.1519 12.2277 35.426 12.1142C35.7001 12.0007 36.0017 11.971 36.2926 12.0288C36.5836 12.0867 36.8509 12.2296 37.0607 12.4394C37.2704 12.6491 37.4133 12.9164 37.4712 13.2074C37.5291 13.4984 37.4994 13.8 37.3858 14.074C37.2723 14.3481 37.08 14.5824 36.8334 14.7472C36.5867 14.912 36.2967 15 36 15C35.6023 14.9995 35.2211 14.8414 34.9399 14.5602C34.6587 14.279 34.5005 13.8977 34.5 13.5ZM34.841 15.9563L35.659 17.2136C34.8676 17.728 33.9439 18.0018 33 18.0018C32.0561 18.0018 31.1324 17.728 30.341 17.2136L31.159 15.9563C31.707 16.3125 32.3465 16.5021 33 16.5021C33.6535 16.5021 34.293 16.3125 34.841 15.9563ZM12 23.25H9V21.75H12V23.25ZM16.5 21.75V23.25H13.5V21.75H16.5ZM21 21.75V23.25H18V21.75H21ZM25.5 23.25H22.5V21.75H25.5V23.25ZM7.5 21.75V23.25H4.5V21.75H7.5Z" fill="white"/>
</g>
<defs>
<clipPath id="clip0_22_1356">
<rect width="48" height="48" fill="white"/>
</clipPath>
</defs>
</svg>

<svg width="48" height="48" fill="none" xmlns="http://www.w3.org/2000/svg"><g clip-path="url(#a)"><path d="M41.25 23.25h-3a.747.747 0 0 1-.75-.75v-.42a7.9 7.9 0 0 0 3.534-4.878 3 3 0 0 0 .216-5.857V8.25a5.256 5.256 0 0 0-4.81-5.23 3.44 3.44 0 0 0-2.867-1.52H30.75A6.758 6.758 0 0 0 24 8.25v2.25a.75.75 0 0 0 .75.75h.75v.095a3 3 0 0 0 .213 5.856c.02.082.04.164.063.246l1.447-.394A6.392 6.392 0 0 1 27 15.375v-4.148a18.533 18.533 0 0 0 8.411-2.479 4.904 4.904 0 0 0 3.198 3.412l1.141.38v2.835a6.375 6.375 0 0 1-10.065 5.199l-.87 1.222c.374.266.77.498 1.185.695v.009a.75.75 0 0 1-.75.75h-.75V21a3.003 3.003 0 0 0-3-3h-21a3.003 3.003 0 0 0-3 3v2.25H3V21a1.502 1.502 0 0 1 1.5-1.5h21A1.502 1.502 0 0 1 27 21v13.5a1.502 1.502 0 0 1-1.5 1.5h-8.287l.77-3.593a.751.751 0 0 0-.733-.907H12a.75.75 0 0 0-.69.455L9.578 36H4.5A1.502 1.502 0 0 1 3 34.5v-9.75H1.5v9.75a3.004 3.004 0 0 0 3 3h4.434L7.005 42H2.25a.75.75 0 0 0-.75.75v3a.75.75 0 0 0 .75.75h43.5a.75.75 0 0 0 .75-.75v-3a.75.75 0 0 0-.75-.75h-1.288a5.984 5.984 0 0 0 2.038-4.5v-.75H45v.75a4.505 4.505 0 0 1-4.5 4.5h-12v-1.5a2.253 2.253 0 0 1 2.25-2.25h9.75a.75.75 0 0 0 .75-.75v-5.25H45v3h1.5V28.5a5.256 5.256 0 0 0-5.25-5.25Zm0-7.875v-2.422a1.498 1.498 0 0 1-.004 2.597c0-.058.004-.116.004-.175Zm-16.5-1.125a1.492 1.492 0 0 1 .75-1.297v2.422l.003.174a1.5 1.5 0 0 1-.753-1.299Zm10.5-7.157a17.056 17.056 0 0 1-9.158 2.657H25.5v-.835c6.42-.841 8.684-3.038 8.78-3.135l-1.056-1.065c-.005.005-.55.524-1.867 1.124-1.108.504-2.979 1.16-5.786 1.552.08-.484.228-.955.44-1.398 2.806-.08 4.26-.79 4.324-.822l-.666-1.344c-.011.005-.85.403-2.495.584A5.23 5.23 0 0 1 30.75 3h2.823a1.951 1.951 0 0 1 1.677.942v3.151Zm3.833 3.644A3.407 3.407 0 0 1 36.75 7.5V4.575a3.757 3.757 0 0 1 3 3.675v2.71l-.667-.223ZM31.441 23.01a7.881 7.881 0 0 0 4.578-.218 2.24 2.24 0 0 0 1.004 1.595l-.214.285a3.941 3.941 0 0 1-6.458-.21 2.26 2.26 0 0 0 1.09-1.452ZM27 40.5V42h-3.75v-1.5H27Zm-1.592-3h.092c.253 0 .505-.032.75-.095V39h-1.442l.6-1.5Zm-6 0h4.384l-.6 1.5H22.5a.75.75 0 0 0-.75.75V42h-1.5v-2.25a.75.75 0 0 0-.75-.75h-.692l.6-1.5Zm-2.516 0h.9l-.6 1.5h-.622l.322-1.5Zm1.858 3V42h-2.822l.322-1.5h2.5ZM12.495 33h3.827l-1.929 9H8.637l3.857-9ZM45 43.5V45H3v-1.5h42Zm0-12.75h-3.75V28.5h-1.5v8.25h-9a3.748 3.748 0 0 0-3 1.503V36.48c.484-.547.75-1.251.75-1.981v-9.75h.287a5.445 5.445 0 0 0 9.222.821l.616-.821h2.625A3.754 3.754 0 0 1 45 28.5v2.25Zm-8.308-2.175.654 1.35a8.25 8.25 0 0 1-7.721-.28l.75-1.3a6.75 6.75 0 0 0 6.317.23ZM31.5 13.5a1.5 1.5 0 1 1-3 0 1.5 1.5 0 0 1 3 0Zm3 0a1.5 1.5 0 1 1 3 0 1.5 1.5 0 0 1-3 0Zm.341 2.456.818 1.258a4.88 4.88 0 0 1-5.318 0l.818-1.258a3.378 3.378 0 0 0 3.682 0ZM12 23.25H9v-1.5h3v1.5Zm4.5-1.5v1.5h-3v-1.5h3Zm4.5 0v1.5h-3v-1.5h3Zm4.5 1.5h-3v-1.5h3v1.5Zm-18-1.5v1.5h-3v-1.5h3Z" fill="#fff"/></g><defs><clipPath id="a"><path fill="#fff" d="M0 0h48v48H0z"/></clipPath></defs></svg>
